X: 1
T: Dan Breen's
S: Catherine McEvoy & John McEvoy "The Kilmore Fancy"
Z: Hiroyuki Yamada
R: reel
M: 4/4
L: 1/8
T: West Clare Reel
Z: Contributed 20050117152858 by Hiroyuki Yamada slainte_mha@infoseek.jp
K: Ador
egdB A2AG|EA~A2 ABcd|e2dB ABAG|EGGF GABd|
eBdB A2AG|EA~A2 ABcd|e2dB ABAG|EGGF G2Bd||
e2ge edBd|eA~A2 eA~A2|e2ge edBd|d2ef g2fg|
e2ge edBd|ea~a2 ea~a2|e2ge edBd|d2ef g2fg||
